www/assets/images/test_icons/flags/AD.svg

<svg fill="none" height="15" viewBox="0 0 21 15" width="21" xmlns="http://www.w3.org/2000/svg" xmlns:xlink="http://www.w3.org/1999/xlink"><mask id="a" height="15" maskUnits="userSpaceOnUse" width="21" x="0" y="0"><path d="m19 0h-17c-1.10457 0-2 .89543-2 2v11c0 1.1046.89543 2 2 2h17c1.1046 0 2-.8954 2-2v-11c0-1.10457-.8954-2-2-2z" fill="#fff"/></mask><g mask="url(#a)"><path d="m19 0h-17c-1.10457 0-2 .89543-2 2v11c0 1.1046.89543 2 2 2h17c1.1046 0 2-.8954 2-2v-11c0-1.10457-.8954-2-2-2z" fill="#ffe100"/><g clip-rule="evenodd" fill-rule="evenodd"><path d="m0 0h7v15h-7z" fill="#0006ab"/><path d="m14 0h7v15h-7z" fill="#d20636"/><path d="m11.936 9.935c.614-.187 1.064-.758 1.064-1.435v-3c0-.835-.672-1.5-1.5-1.5h-2c-.826 0-1.5.67-1.5 1.5v3c0 .682.448 1.25 1.064 1.436.186.62.758 1.064 1.436 1.064.682 0 1.25-.45 1.436-1.065z" fill="#c8b47c"/><path d="m9 5h1v1.5h-1zm2 2h1v1.5h-1z" fill="#d20636"/><path d="m11 5h1v1.5h-1zm-2 2h1v1.5h-1z" fill="#ffe100"/></g><path d="m19 .5h-17c-.82843 0-1.5.67157-1.5 1.5v11c0 .8284.67157 1.5 1.5 1.5h17c.8284 0 1.5-.6716 1.5-1.5v-11c0-.82843-.6716-1.5-1.5-1.5z" stroke="#000" stroke-opacity=".1"/></g></svg>

<svg width="21" height="15" viewBox="0 0 21 15" fill="none" xmlns="http://www.w3.org/2000/svg">
<mask id="mask0_3_214" style="mask-type:alpha" maskUnits="userSpaceOnUse" x="0" y="0" width="21" height="15">
<path d="M19 0H2C0.89543 0 0 0.89543 0 2V13C0 14.1046 0.89543 15 2 15H19C20.1046 15 21 14.1046 21 13V2C21 0.89543 20.1046 0 19 0Z" fill="white"/>
</mask>
<g mask="url(#mask0_3_214)">
<path d="M19 0H2C0.89543 0 0 0.89543 0 2V13C0 14.1046 0.89543 15 2 15H19C20.1046 15 21 14.1046 21 13V2C21 0.89543 20.1046 0 19 0Z" fill="#FFE100"/>
<path fill-rule="evenodd" clip-rule="evenodd" d="M0 0H7V15H0V0Z" fill="#0006AB"/>
<path fill-rule="evenodd" clip-rule="evenodd" d="M14 0H21V15H14V0Z" fill="#D20636"/>
<path fill-rule="evenodd" clip-rule="evenodd" d="M11.936 9.935C12.55 9.748 13 9.177 13 8.5V5.5C13 4.665 12.328 4 11.5 4H9.5C8.674 4 8 4.67 8 5.5V8.5C8 9.182 8.448 9.75 9.064 9.936C9.25 10.556 9.822 11 10.5 11C11.182 11 11.75 10.55 11.936 9.935Z" fill="#C8B47C"/>
<path fill-rule="evenodd" clip-rule="evenodd" d="M9 5H10V6.5H9V5ZM11 7H12V8.5H11V7Z" fill="#D20636"/>
<path fill-rule="evenodd" clip-rule="evenodd" d="M11 5H12V6.5H11V5ZM9 7H10V8.5H9V7Z" fill="#FFE100"/>
<path d="M19 0.5H2C1.17157 0.5 0.5 1.17157 0.5 2V13C0.5 13.8284 1.17157 14.5 2 14.5H19C19.8284 14.5 20.5 13.8284 20.5 13V2C20.5 1.17157 19.8284 0.5 19 0.5Z" stroke="black" stroke-opacity="0.1"/>
</g>
</svg>
